X:534
T:B534-  Ye Commons and Peers
S:song by Johnathon Swift? 1708-9
Q:1/4=120
L:534
M:6/4
K:F
F|AcAF2c|dBBB2c|d3/2e/fg3/2a/ (g/f/)|)e3d2)":s:"f|\
gecf2g|gfdg2a/b/|acgcfe|(f3":s:"f2)|]

